img/Microsoft_logo_(2012) 1.svg

<svg width="150" height="32" viewBox="0 0 150 32" fill="none" xmlns="http://www.w3.org/2000/svg">
<g clip-path="url(#clip0_98_1261)">
<path d="M62.3815 6.40001V25.6H59.0491V10.5333H59.0047L53.0509 25.6H50.8294L44.7423 10.5333H44.6978V25.6H41.6321V6.40001H46.4307L51.9401 20.6222H52.029L57.8495 6.40001H62.3815ZM65.1362 7.86667C65.1362 7.33334 65.3139 6.88889 65.7138 6.53334C66.1137 6.17778 66.558 6.00001 67.0912 6.00001C67.6688 6.00001 68.1576 6.17778 68.513 6.53334C68.8685 6.88889 69.0906 7.33334 69.0906 7.86667C69.0906 8.40001 68.9129 8.84445 68.513 9.20001C68.1131 9.55556 67.6688 9.73334 67.0912 9.73334C66.5136 9.73334 66.0693 9.55556 65.7138 9.20001C65.3584 8.80001 65.1362 8.35556 65.1362 7.86667ZM68.7352 11.8222V25.6H65.4917V11.8222H68.7352ZM78.5545 23.2444C79.0432 23.2444 79.5764 23.1556 80.154 22.8889C80.7316 22.6667 81.2648 22.3556 81.7535 22V25.0222C81.2203 25.3333 80.6427 25.5556 79.9763 25.6889C79.3098 25.8222 78.5989 25.9111 77.7991 25.9111C75.7553 25.9111 74.1113 25.2889 72.8673 24C71.5788 22.7111 70.9567 21.0667 70.9567 19.1111C70.9567 16.8889 71.6232 15.0667 72.9117 13.6444C74.2002 12.2222 76.0219 11.5111 78.4212 11.5111C79.0432 11.5111 79.6653 11.6 80.2429 11.7333C80.8649 11.8667 81.3536 12.0889 81.7091 12.2667V15.3778C81.2203 15.0222 80.6872 14.7111 80.1984 14.5333C79.6653 14.3556 79.1321 14.2222 78.5989 14.2222C77.3104 14.2222 76.2885 14.6222 75.4887 15.4667C74.6889 16.3111 74.3335 17.4222 74.3335 18.8444C74.3335 20.2222 74.7334 21.3333 75.4887 22.0889C76.244 22.8444 77.266 23.2444 78.5545 23.2444ZM90.9508 11.6C91.2174 11.6 91.4395 11.6 91.6617 11.6444C91.8839 11.6889 92.0616 11.7333 92.1949 11.7778V15.0667C92.0172 14.9333 91.795 14.8 91.4395 14.7111C91.0841 14.6222 90.7286 14.5333 90.2399 14.5333C89.4401 14.5333 88.7737 14.8889 88.2405 15.5556C87.7073 16.2222 87.3963 17.2444 87.3963 18.6667V25.6H84.1528V11.8222H87.3963V14H87.4407C87.7518 13.2444 88.1961 12.6667 88.7737 12.2222C89.3957 11.8222 90.1066 11.6 90.9508 11.6ZM92.3726 18.9333C92.3726 16.6667 93.0391 14.8444 94.2831 13.5111C95.5717 12.1778 97.3489 11.5111 99.6149 11.5111C101.748 11.5111 103.436 12.1333 104.636 13.4222C105.835 14.7111 106.457 16.4444 106.457 18.6222C106.457 20.8444 105.791 22.6222 104.547 23.9556C103.258 25.2889 101.525 25.9556 99.3039 25.9556C97.1712 25.9556 95.4828 25.3333 94.2387 24.0889C92.9946 22.8 92.3726 21.0667 92.3726 18.9333ZM95.7494 18.8C95.7494 20.2222 96.0604 21.3333 96.7269 22.0889C97.3933 22.8444 98.3264 23.2444 99.526 23.2444C100.681 23.2444 101.614 22.8889 102.236 22.0889C102.858 21.3333 103.169 20.2222 103.169 18.7111C103.169 17.2444 102.858 16.1333 102.236 15.3333C101.614 14.5778 100.681 14.1778 99.5705 14.1778C98.3708 14.1778 97.4822 14.5778 96.8157 15.3778C96.0604 16.2222 95.7494 17.3333 95.7494 18.8ZM111.3 15.4667C111.3 15.9111 111.434 16.3111 111.745 16.5778C112.056 16.8444 112.678 17.1556 113.7 17.5556C114.988 18.0889 115.921 18.6667 116.41 19.2889C116.943 19.9556 117.21 20.7111 117.21 21.6444C117.21 22.9333 116.721 23.9556 115.699 24.7556C114.722 25.5556 113.344 25.9111 111.656 25.9111C111.078 25.9111 110.456 25.8222 109.745 25.6889C109.034 25.5556 108.457 25.3778 107.968 25.1556V21.9556C108.546 22.3556 109.212 22.7111 109.879 22.9333C110.545 23.1556 111.167 23.2889 111.745 23.2889C112.456 23.2889 113.033 23.2 113.344 22.9778C113.7 22.7556 113.877 22.4444 113.877 21.9556C113.877 21.5111 113.7 21.1556 113.344 20.8C112.989 20.4889 112.278 20.1333 111.3 19.7333C110.101 19.2444 109.256 18.6667 108.768 18.0444C108.279 17.4222 108.012 16.6222 108.012 15.6444C108.012 14.4 108.501 13.3778 109.479 12.5778C110.456 11.7778 111.745 11.3778 113.3 11.3778C113.788 11.3778 114.322 11.4222 114.899 11.5556C115.477 11.6889 116.01 11.8222 116.41 11.9556V15.1111C115.966 14.8444 115.477 14.5778 114.899 14.3556C114.322 14.1333 113.744 14.0444 113.211 14.0444C112.589 14.0444 112.1 14.1778 111.789 14.4C111.478 14.7111 111.3 15.0222 111.3 15.4667ZM118.587 18.9333C118.587 16.6667 119.254 14.8444 120.498 13.5111C121.786 12.1778 123.563 11.5111 125.829 11.5111C127.962 11.5111 129.65 12.1333 130.85 13.4222C132.05 14.7111 132.672 16.4444 132.672 18.6222C132.672 20.8444 132.005 22.6222 130.761 23.9556C129.473 25.2889 127.74 25.9556 125.518 25.9556C123.386 25.9556 121.697 25.3333 120.453 24.0889C119.254 22.8 118.587 21.0667 118.587 18.9333ZM121.964 18.8C121.964 20.2222 122.275 21.3333 122.941 22.0889C123.608 22.8444 124.541 23.2444 125.74 23.2444C126.896 23.2444 127.829 22.8889 128.451 22.0889C129.073 21.3333 129.384 20.2222 129.384 18.7111C129.384 17.2444 129.073 16.1333 128.451 15.3333C127.829 14.5778 126.896 14.1778 125.785 14.1778C124.585 14.1778 123.697 14.5778 123.03 15.3778C122.319 16.2222 121.964 17.3333 121.964 18.8ZM143.469 14.4889H138.626V25.6H135.338V14.4889H133.027V11.8222H135.338V9.91112C135.338 8.48889 135.826 7.28889 136.759 6.35556C137.692 5.42223 138.892 4.97778 140.358 4.97778C140.758 4.97778 141.114 5.02223 141.425 5.02223C141.736 5.02223 142.002 5.11112 142.224 5.20001V8.00001C142.136 7.95556 141.913 7.86667 141.647 7.77778C141.38 7.68889 141.069 7.64445 140.714 7.64445C140.047 7.64445 139.514 7.86667 139.159 8.26667C138.803 8.66667 138.626 9.33334 138.626 10.1333V11.7778H143.469V8.66667L146.712 7.68889V11.7778H150V14.4444H146.712V20.8889C146.712 21.7333 146.89 22.3111 147.156 22.6667C147.467 23.0222 147.956 23.2 148.623 23.2C148.8 23.2 149.022 23.1556 149.289 23.0667C149.556 22.9778 149.778 22.8889 149.956 22.7556V25.4222C149.733 25.5556 149.422 25.6444 148.934 25.7333C148.445 25.8222 148.001 25.8667 147.512 25.8667C146.134 25.8667 145.113 25.5111 144.446 24.8C143.78 24.0889 143.424 22.9778 143.424 21.5111L143.469 14.4889Z" fill="#FAD9C4"/>
<path d="M15.1955 0H0V15.2H15.1955V0Z" fill="#FAD9C4"/>
<path d="M31.9904 0H16.7949V15.2H31.9904V0Z" fill="#FAD9C4"/>
<path d="M15.1955 16.8H0V32H15.1955V16.8Z" fill="#FAD9C4"/>
<path d="M31.9904 16.8H16.7949V32H31.9904V16.8Z" fill="#FAD9C4"/>
</g>
<defs>
<clipPath id="clip0_98_1261">
<rect width="150" height="32" fill="white"/>
</clipPath>
</defs>
</svg>

<svg xmlns="http://www.w3.org/2000/svg" width="150" height="32" fill="none"><g fill="#FAD9C4" clip-path="url(#a)"><path d="M62.382 6.4v19.2h-3.333V10.533h-.044L53.05 25.6h-2.222l-6.087-15.067h-.044V25.6h-3.066V6.4h4.799l5.51 14.222h.088L57.849 6.4zm2.754 1.467c0-.534.178-.978.578-1.334.4-.355.844-.533 1.377-.533.578 0 1.067.178 1.422.533s.578.8.578 1.334c0 .533-.178.977-.578 1.333s-.844.533-1.422.533c-.577 0-1.022-.177-1.377-.533-.356-.4-.578-.844-.578-1.333m3.6 3.955V25.6h-3.244V11.822zm9.819 11.422c.488 0 1.021-.088 1.599-.355a7 7 0 0 0 1.6-.889v3.022a5.7 5.7 0 0 1-1.778.667c-.666.133-1.377.222-2.177.222-2.044 0-3.688-.622-4.932-1.911-1.288-1.289-1.91-2.933-1.91-4.889 0-2.222.666-4.044 1.955-5.467 1.288-1.422 3.11-2.133 5.51-2.133.621 0 1.243.089 1.82.222.623.134 1.112.356 1.467.534v3.11c-.489-.355-1.022-.666-1.51-.844-.534-.177-1.067-.31-1.6-.31-1.289 0-2.31.4-3.11 1.244s-1.156 1.955-1.156 3.377c0 1.378.4 2.49 1.156 3.245s1.777 1.155 3.066 1.155M90.95 11.6c.266 0 .489 0 .71.044q.334.068.534.134v3.289a2 2 0 0 0-.755-.356c-.356-.089-.711-.178-1.2-.178-.8 0-1.466.356-2 1.023-.533.666-.844 1.688-.844 3.11V25.6h-3.243V11.822h3.243V14h.045c.31-.756.755-1.333 1.333-1.778.622-.4 1.333-.622 2.177-.622m1.422 7.333c0-2.266.666-4.089 1.91-5.422q1.933-2 5.332-2c2.133 0 3.821.622 5.021 1.911s1.821 3.022 1.821 5.2c0 2.222-.666 4-1.91 5.334-1.289 1.333-3.022 2-5.243 2q-3.2 0-5.065-1.867c-1.244-1.289-1.866-3.022-1.866-5.156m3.376-.133c0 1.422.311 2.533.978 3.289.666.755 1.6 1.155 2.799 1.155 1.155 0 2.088-.355 2.71-1.155.622-.756.933-1.867.933-3.378 0-1.467-.311-2.578-.933-3.378-.622-.755-1.555-1.155-2.666-1.155-1.2 0-2.088.4-2.754 1.2-.756.844-1.067 1.955-1.067 3.422m15.551-3.333c0 .444.134.844.445 1.11s.933.579 1.955.979c1.288.533 2.221 1.11 2.71 1.733.533.667.8 1.422.8 2.355 0 1.29-.489 2.312-1.511 3.112-.977.8-2.355 1.155-4.043 1.155-.578 0-1.2-.089-1.911-.222s-1.288-.311-1.777-.533v-3.2c.578.4 1.244.755 1.911.977.666.223 1.288.356 1.866.356.711 0 1.288-.089 1.599-.311.356-.222.533-.534.533-1.022 0-.445-.177-.8-.533-1.156-.355-.311-1.066-.667-2.044-1.067-1.199-.489-2.044-1.066-2.532-1.689-.489-.622-.756-1.422-.756-2.4q0-1.866 1.467-3.066c.977-.8 2.266-1.2 3.821-1.2.488 0 1.022.044 1.599.178.578.133 1.111.266 1.511.4v3.155a9.5 9.5 0 0 0-1.511-.755 4.7 4.7 0 0 0-1.688-.312c-.622 0-1.111.134-1.422.356-.311.311-.489.622-.489 1.067m7.287 3.466c0-2.266.667-4.089 1.911-5.422q1.932-2 5.331-2c2.133 0 3.821.622 5.021 1.911s1.822 3.022 1.822 5.2c0 2.222-.667 4-1.911 5.334-1.288 1.333-3.021 2-5.243 2q-3.198 0-5.065-1.867c-1.199-1.289-1.866-3.022-1.866-5.156m3.377-.133c0 1.422.311 2.533.977 3.289.667.755 1.6 1.155 2.799 1.155 1.156 0 2.089-.355 2.711-1.155.622-.756.933-1.867.933-3.378 0-1.467-.311-2.578-.933-3.378-.622-.755-1.555-1.155-2.666-1.155-1.2 0-2.088.4-2.755 1.2-.711.844-1.066 1.955-1.066 3.422m21.505-4.311h-4.843V25.6h-3.288V14.489h-2.311v-2.667h2.311v-1.91c0-1.423.488-2.623 1.421-3.556.933-.934 2.133-1.378 3.599-1.378.4 0 .756.044 1.067.044s.577.09.799.178V8a5 5 0 0 0-.577-.222 3 3 0 0 0-.933-.134c-.667 0-1.2.223-1.555.623-.356.4-.533 1.066-.533 1.866v1.645h4.843V8.667l3.243-.978v4.089H150v2.666h-3.288v6.445c0 .844.178 1.422.444 1.778q.466.533 1.467.533.266 0 .666-.133c.267-.09.489-.178.667-.311v2.666c-.223.134-.534.222-1.022.311a7.7 7.7 0 0 1-1.422.134q-2.066 0-3.066-1.067c-.666-.711-1.022-1.822-1.022-3.289zM15.196 0H0v15.2h15.196zM31.99 0H16.795v15.2H31.99zM15.196 16.8H0V32h15.196zM31.99 16.8H16.795V32H31.99z"/></g><defs><clipPath id="a"><path fill="#fff" d="M0 0h150v32H0z"/></clipPath></defs></svg>
